X:1
T:Title
%%score { 1 | 2 }
L:1/8
Q:1/4=81
M:6/8
K:D
V:1 treble nm="Grand Piano"
V:2 bass 
V:1
 FF[EG] [FA]2 [FA] | [GB]2 [GB] [FA]2 [FA] | [Fd]>[Fd][Fd] [Fd]2 [Fd] |[M:5/8] c-c- c3 |[M:1/8] c | %5
w: Wm.~J.~Kirkpatrick * * * *|||||
[M:3/4] B>B B d2 B | [GB]2 [FA] [FA]2 [FA] | [EG][^DF] [EG] [FA]2 [EG] |[M:5/8] [DF]-[DF]- [DF]3 | %9
w: ||||
[M:1/8] [FA] |[M:3/4] [Fd]>[Fd] [Fd] .c3 | B>B B .[FA]3 | A^G A c2 B |[M:5/8] [CA]-[CA]- [CA]3 | %14
w: |||||
[M:1/8] [EG] |[M:3/4] [DF]2 [EG] [FA]2 [FA] | [A=c]>[Ac] [GB] [FA]2 [Fd] | d>d d d2 [Ec] | %18
w: ||||
[M:5/8] [Fd]-[Fd]- [Fd]3 |] %19
w: |
V:2
 [D,A,D][D,A,D][D,A,] [D,D]2 [D,D] | [G,D]2 [G,D] [D,D]2 [D,D] | %2
 [D,A,]>[D,A,][D,A,] [B,,B,]2 [B,,B,] |[M:5/8] [F,^A,F]-[F,A,F]- [F,A,F]3 |[M:1/8] [F,A,E] | %5
[M:3/4][K:treble] [G,B,D]>[G,B,D] [G,B,D] [G,B,D]2 [G,DG] | [D,D]2 [D,D] [D,D]2 [D,A,] | %7
 [A,,A,][A,,A,] [A,,A,] [A,,A,]2 [A,,A,] |[M:5/8] [D,A,]-[D,A,]- [D,A,]3 |[M:1/8] [D,A,] | %10
[M:3/4] [B,,B,]>[B,,B,] [B,,B,] .[F,,F,^A,F]3 | [G,B,D]>[G,DG] [G,DG][K:bass] .[D,D]3 | %12
 [E,CE][E,B,E] [E,CE] [E,A,E]2 [E,^G,E] |[M:5/8] [A,,A,]-[A,,A,]- [A,,A,]3 |[M:1/8] [A,,A,] | %15
[M:3/4] [D,A,]2 [D,A,] [D,D]2 [D,D] | [D,D]>[D,D] [D,D] [D,D]2 [D,=C] | %17
 [G,B,G]>[G,B,G] [G,^A,G] [=A,F]2[K:bass] [A,,A,] |[M:5/8] [D,A,]-[D,A,]- [D,A,]3 |] %19

